X: 25
T:Missa Gaudeamus / Gloria
N: Derived from Jos0402b-Missa_Gaudeamus-Gloria.krn
C: Josquin des Prez
%%abc-version 2.0
%%abcx-abcm2ps-target-version 5.9.1 (29 Sep 2008)
%%abc-creator hum2abc beta
%%abcx-conversion-date 2019/02/12 16:15:39
%%abc-edited-by Jesse Rodin
%%abc-edited-by Jesse Rodin; Victoria Chang 2011/04/11
%%abcx-initial-encoding-date 2011/04/11/
%%humdrum-veritas 1882412274
%%humdrum-veritas-data 535591343
%%linebreak <none>
%%barnumbers 0
L: 1/4
M: 3/1
Q: 1/2=120
%%staves [1 2 3 4]
V: 1 clef=treble
V: 2 clef=treble-8
V: 3 clef=treble-8
V: 4 clef=bass
K: C
[V:1] z12 | 
[V:2] G4A2A3Bcd | 
[V:3] z12 | 
[V:4] z12 | 
[V:1] G4A2A3Bcd | 
[V:2] e4f8 | 
[V:3] z12 | 
[V:4] z12 | 
[V:1] e4f8 | 
[V:2] e2a4d4a2- | 
[V:3] z12 | 
[V:4] z12 | 
[V:1] e4d2e2de2d/c/ | 
[V:2] age2f2g4c2 | 
[V:3] z12 | 
[V:4] z12 | 
[V:1] B2c2B2c2Bc2B/A/ | 
[V:2] d2e4A2e4- | 
[V:3] z12 | 
[V:4] z12 | 
[V:1] G2d2c2e3dc2- | 
[V:2] e2d2a4g2a2- | 
[V:3] z12 | 
[V:4] z12 | 
[V:1] cAB2c2F2E2G2- | 
[V:2] afg2a4g2e2- | 
[V:3] z12 | 
[V:4] z12 | 
[V:1] GFE3CD2E2e2 | 
[V:2] e2g2f3e/d/c2g2 | 
[V:3] z12 | 
[V:4] z4z4C,4 | 
[V:1] d2f3ed4^c2 | 
[V:2] f2a3gf2e4 | 
[V:3] z12 | 
[V:4] D,2D,3E,F,G,A,4 | 
[V:1] d4z4z4 | 
[V:2] d4z4d4 | 
[V:3] z4z4G4 | 
[V:4] _B,6A,2B,4 | 
[V:1] c4c4c4 | 
[V:2] a8a4 | 
[V:3] A2A3Bcde4 | 
[V:4] A,4z4A,4 | 
[V:1] d2A2B2c4BA | 
[V:2] agfed2e3cd2 | 
[V:3] f6e2f4 | 
[V:4] D,6A,4B,2 | 
[V:1] G2A2G2A2D4 | 
[V:2] e2A2e2f2gfed | 
[V:3] e4z4G4 | 
[V:4] C6A,2B,4 | 
[V:1] z2A4A2GFE2 | 
[V:2] c2e4A2B2c2 | 
[V:3] A2A3Bcde4 | 
[V:4] A,2C4F,2G,2A,2 | 
[V:1] D2A3Bc2d2A2 | 
[V:2] d6A2d4 | 
[V:3] f6e2f4 | 
[V:4] D,4z4D,4 | 
[V:1] z2c2d4e4 | 
[V:2] c2A2B2d4^c2 | 
[V:3] e4z4G4 | 
[V:4] A,4G,2F,2E,4 | 
[V:1] f3e/d/f2e3d/c/e2 | 
[V:2] d3cd2e2A4 | 
[V:3] A2A3Bcde4 | 
[V:4] D,6A,3B,C2 | 
[V:1] d3c/=B/d2c2_BA2G/F/ | 
[V:2] z2d2_B2c2d4 | 
[V:3] f6e2f4 | 
[V:4] D4z4D,4 | 
[V:1] G6C2D4 | 
[V:2] =B2c2B2c2G2g2 | 
[V:3] e4z4G4 | 
[V:4] E,2C,2G,2A,2B,4 | 
[V:1] C4z4G4 | 
[V:2] f2e3dc4B2 | 
[V:3] A2A3Bcde4 | 
[V:4] C3B,C2A,2G,4 | 
[V:1] A3GABc2_BA2G/F/ | 
[V:2] c2d4c2d4 | 
[V:3] f6e2f4 | 
[V:4] F,4z4D,4 | 
[V:1] G3FEDC2D4 | 
[V:2] B2c2B2c2G2g2- | 
[V:3] e4z4G4 | 
[V:4] E,2C,2G,2A,2B,4 | 
[V:1] C4z4G4 | 
[V:2] gfedcBA2G4 | 
[V:3] A2A3Bcde4 | 
[V:4] C3B,A,G,F,2E,4 | 
[V:1] A2A4A2A2A2 | 
[V:2] d2Ad3cA3d2 | 
[V:3] f6e2f4 | 
[V:4] D,4z4D,4 | 
[V:1] G2c3BA4G2 | 
[V:2] Be2c2dAd2Bc2 | 
[V:3] e4z4G4 | 
[V:4] E,2C,2F,4E,4 | 
[V:1] F2c3BA4^G2 | 
[V:2] d2e2A4B4 | 
[V:3] A2A3Bcde4 | 
[V:4] D,2C,2F,4E,4 | 
[V:1] A12 | 
[V:2] z2d4c2dcAd | 
[V:3] f6e2f4 | 
[V:4] D,4z4D,4 | 
[V:1] z12 | 
[V:2] G2c4d2efg2 | 
[V:3] e4z4G4 | 
[V:4] E,2C,2F,4E,4 | 
[V:1] z12 | 
[V:2] f2e4A2B2^c2 | 
[V:3] A2A3Bcde4 | 
[V:4] D,2C,2F,4E,4 | 
[V:1] z2A4G2A3B | 
[V:2] d4z4z2d2 | 
[V:3] f6e2f4 | 
[V:4] D,4z4D,4 | 
[V:1] cAB2E3FGFED | 
[V:2] c2B2c4B4 | 
[V:3] e4z4G4 | 
[V:4] A,2G,2A,4E,4 | 
[V:1] C2F4F2G2G2 | 
[V:2] z2c4A2B2c2 | 
[V:3] A2A3Bcde4 | 
[V:4] F,3F,F,2F,2E,4 | 
[V:1] A2d4c2A3B | 
[V:2] d2A2_B2G2F3G | 
[V:3] f6e2f4 | 
[V:4] z2D,2_B,,2C,2D,4 | 
[V:1] c6BAB4 | 
[V:2] A4E4z2e2- | 
[V:3] e4z4G4 | 
[V:4] A,,8E,4 | 
[V:1] z2c4c2c2c2 | 
[V:2] e2e2e3dcBA2 | 
[V:3] A2A3Bcde4 | 
[V:4] A,,4A,8 | 
[V:1] d3efde2A3B | 
[V:2] B2A3Bc2F2c2- | 
[V:3] f6e2f4 | 
[V:4] z2D,4C,2D,2A,2- | 
[V:1] cAB2E2A2GFED | 
[V:2] c2B2c2A2E4 | 
[V:3] e4z4G4 | 
[V:4] A,2G,2A,2C2B,4 | 
[V:1] C2c3BA2G4 | 
[V:2] e4A3Bc4 | 
[V:3] A2A3Bcde4 | 
[V:4] A,3B,C4C,4 | 
[V:1] F4z4z2A2 | 
[V:2] F3GABc2A2d2 | 
[V:3] f6e2f4 | 
[V:4] z2D,4C,2D,4 | 
[V:1] G2c3BA2GFED | 
[V:2] B2e3dcB/A/B2e2- | 
[V:3] e4z4G4 | 
[V:4] E,2C,3D,/E,/F,2E,4 | 
[V:1] Cc2BA2G3FE2 | 
[V:2] e2A2e3dB2c2 | 
[V:3] A2A3Bcde4 | 
[V:4] A,,3B,,C,D,E,F,G,2A,2 | 
[V:1] D2A3Bc2A3B | 
[V:2] d2A2d2c2dAd2 | 
[V:3] f6e2f4 | 
[V:4] D,2F,2D,2A,2F,2D,2 | 
[V:1] cdc3BA2G2A2 | 
[V:2] c4A4c4 | 
[V:3] e12- | 
[V:4] A,3B,CDC3B,A,2 | 
[V:1] B2c2A2c3BA2 | 
[V:2] B2A2c3B/A/B2c2 | 
[V:3] e12- | 
[V:4] G,2A,3G,A,2G,2A,2 | 
[V:1] G12 ||  
[V:2] B12 ||  
[V:3] e12 ||  
[V:4] E,12 ||  
[V:1] [M:2/1]z8 | 
[V:2] [M:2/1]z8 | 
[V:3] [M:2/1]e8- | 
[V:4] [M:2/1]A,8 | 
[V:1] z8 | 
[V:2] z8 | 
[V:3] e8 | 
[V:4] G,4A,4- | 
[V:1] z8 | 
[V:2] z8 | 
[V:3] e8- | 
[V:4] A,4E,4 | 
[V:1] z8 | 
[V:2] z8 | 
[V:3] e4d4- | 
[V:4] G,6F,2 | 
[V:1] z8 | 
[V:2] z8 | 
[V:3] d8 | 
[V:4] D,2F,4G,2 | 
[V:1] z8 | 
[V:2] z8 | 
[V:3] c4d4- | 
[V:4] E,4D,4 | 
[V:1] z8 | 
[V:2] z8 | 
[V:3] d8 | 
[V:4] G,8- | 
[V:1] z8 | 
[V:2] z8 | 
[V:3] g6f2 | 
[V:4] G,4C4- | 
[V:1] z8 | 
[V:2] z8 | 
[V:3] e4d4 | 
[V:4] C2A,2B,4 | 
[V:1] z8 | 
[V:2] z8 | 
[V:3] e4f4- | 
[V:4] C4D4 | 
[V:1] z8 | 
[V:2] z8 | 
[V:3] f4e4 | 
[V:4] D,4A,4- | 
[V:1] z8 | 
[V:2] z8 | 
[V:3] f4e4 | 
[V:4] A,2F,2G,2A,2- | 
[V:1] z8 | 
[V:2] z8 | 
[V:3] f8 | 
[V:4] A,2D,2D4 | 
[V:1] z4G4- | 
[V:2] z8 | 
[V:3] e8- | 
[V:4] C3B,CDC2- | 
[V:1] G2A2B2c2- | 
[V:2] z8 | 
[V:3] e8- | 
[V:4] C2B,A,G,2A,2- | 
[V:1] c2BAB4 | 
[V:2] z8 | 
[V:3] e8 | 
[V:4] A,6^G,2 | 
[V:1] E4z2A2- | 
[V:2] z4c4- | 
[V:3] z8 | 
[V:4] A,8 | 
[V:1] A2GFG2A2 | 
[V:2] c2d2e2f2- | 
[V:3] z8 | 
[V:4] z8 | 
[V:1] D2d4cB | 
[V:2] f2ede4 | 
[V:3] z8 | 
[V:4] z8 | 
[V:1] c4z2F2- | 
[V:2] A4a4- | 
[V:3] z8 | 
[V:4] z8 | 
[V:1] F2EDE4 | 
[V:2] a2gfgfed | 
[V:3] z8 | 
[V:4] z8 | 
[V:1] z2c4BA | 
[V:2] c4d4- | 
[V:3] z8 | 
[V:4] z8 | 
[V:1] B2c4F2- | 
[V:2] d2c2d4 | 
[V:3] z8 | 
[V:4] z8 | 
[V:1] F2EDE4 | 
[V:2] A4c4 | 
[V:3] z8 | 
[V:4] z4A,4 | 
[V:1] z4z2C2 | 
[V:2] A4c4- | 
[V:3] e8- | 
[V:4] C4A,4 | 
[V:1] E3FG3A | 
[V:2] c2BAe3f | 
[V:3] e8- | 
[V:4] C6B,A, | 
[V:1] B2c3Be2- | 
[V:2] g2e2a4- | 
[V:3] e8- | 
[V:4] G,2A,3G,A,B, | 
[V:1] e2d4^c2 | 
[V:2] a4a4 | 
[V:3] e8 | 
[V:4] C2D2A,4 | 
[V:1] d8 | 
[V:2] f8 | 
[V:3] d8- | 
[V:4] D,8 | 
[V:1] z2A2_B4 | 
[V:2] z2f2g4 | 
[V:3] d8- | 
[V:4] z2D,2G,4 | 
[V:1] A2_B2A2B2- | 
[V:2] f2g2f2g2- | 
[V:3] d8- | 
[V:4] D,2G,2D,2G,2- | 
[V:1] B2A4G2 | 
[V:2] g2f2d4 | 
[V:3] d8 | 
[V:4] G,2A,2_B,4 | 
[V:1] A8 | 
[V:2] e4a4- | 
[V:3] c8- | 
[V:4] A,6G,F, | 
[V:1] z4e4- | 
[V:2] a4g4 | 
[V:3] c8- | 
[V:4] A,2=B,2C4 | 
[V:1] e4e4 | 
[V:2] z4g4- | 
[V:3] c8- | 
[V:4] z4C,4- | 
[V:1] e8 | 
[V:2] g4g4 | 
[V:3] c8- | 
[V:4] C,4C,4 | 
[V:1] f4f4 | 
[V:2] a8 | 
[V:3] c8- | 
[V:4] F,8 | 
[V:1] e4e4 | 
[V:2] g4g4 | 
[V:3] c8 | 
[V:4] C,4C,4 | 
[V:1] d6c2 | 
[V:2] g4g4 | 
[V:3] d8- | 
[V:4] G,4G,4 | 
[V:1] _B2A2B4 | 
[V:2] g8 | 
[V:3] d8- | 
[V:4] G,8 | 
[V:1] A4f4- | 
[V:2] f6ed | 
[V:3] d8- | 
[V:4] D,8- | 
[V:1] f2edf4 | 
[V:2] f2g2a4- | 
[V:3] d8 | 
[V:4] D,8 | 
[V:1] e4z2e2- | 
[V:2] a2gfe4 | 
[V:3] c8- | 
[V:4] A,8- | 
[V:1] edcBc3B | 
[V:2] z4A4- | 
[V:3] c8- | 
[V:4] A,8 | 
[V:1] AGA4GF | 
[V:2] A4A4 | 
[V:3] c8- | 
[V:4] z4A,,4- | 
[V:1] E2D2E4 | 
[V:2] A4G2A2- | 
[V:3] c8 | 
[V:4] A,,2B,,2C,4 | 
[V:1] z8 | 
[V:2] A2F2E4 | 
[V:3] A8- | 
[V:4] D,4A,,4 | 
[V:1] z8 | 
[V:2] F6ED | 
[V:3] A8 | 
[V:4] D,4z2D,2 | 
[V:1] z8 | 
[V:2] E2F4D2 | 
[V:3] A4d4- | 
[V:4] C,2D,3E,F,2 | 
[V:1] z8 | 
[V:2] _B4A2_B2- | 
[V:3] d8- | 
[V:4] G,2D,4G,2- | 
[V:1] z8 | 
[V:2] B2A2_B2G2 | 
[V:3] d4d4 | 
[V:4] G,2F,2G,2_B,2- | 
[V:1] z8 | 
[V:2] A4E4 | 
[V:3] c4B4 | 
[V:4] B,2A,4G,2 | 
[V:1] A4_B2A2- | 
[V:2] F4D4 | 
[V:3] A4d4- | 
[V:4] A,2D,3E,F,2- | 
[V:1] A2GFA2G2 | 
[V:2] F6G2 | 
[V:3] d4c4 | 
[V:4] F,2E,D,F,2E,2 | 
[V:1] E4c4- | 
[V:2] A8 | 
[V:3] z4c4- | 
[V:4] A,,6A,2- | 
[V:1] c4B4 | 
[V:2] z8 | 
[V:3] c4d4 | 
[V:4] A,4G,4 | 
[V:1] A4G2c2- | 
[V:2] z8 | 
[V:3] d4e4- | 
[V:4] F,4E,2A,2- | 
[V:1] c2BAB4 | 
[V:2] z8 | 
[V:3] e2f2g4 | 
[V:4] A,4G,3F, | 
[V:1] A3Bcde2- | 
[V:2] z4A4- | 
[V:3] f6e2 | 
[V:4] D,4z4 | 
[V:1] edd4^c2 | 
[V:2] A2B2A4 | 
[V:3] f2d2e4 | 
[V:4] z8 | 
[V:1] d3cBAB2 | 
[V:2] B4G2d2- | 
[V:3] d8- | 
[V:4] z8 | 
[V:1] A2d3cBA | 
[V:2] dcBAB2d2- | 
[V:3] d8- | 
[V:4] z8 | 
[V:1] B2A4^G2 | 
[V:2] dcBAB4 | 
[V:3] d8 | 
[V:4] z8 | 
[V:1] A4z4 | 
[V:2] A4a4- | 
[V:3] c6c2 | 
[V:4] F,6F,2 | 
[V:1] c6c2 | 
[V:2] a2a2a4 | 
[V:3] c4c4 | 
[V:4] F,4F,4 | 
[V:1] c4c4 | 
[V:2] g4g4 | 
[V:3] e6d2 | 
[V:4] C,4C,4 | 
[V:1] B6G2 | 
[V:2] g4G4- | 
[V:3] d4g4- | 
[V:4] G,6E,2 | 
[V:1] G4z2G2- | 
[V:2] G2ABc4- | 
[V:3] g2e2e4- | 
[V:4] E,3C,C,4 | 
[V:1] G2A2G2c2- | 
[V:2] c2F2G2A2- | 
[V:3] e2f2e2f2- | 
[V:4] z8 | 
[V:1] cde4d2 | 
[V:2] AFG2A2B2 | 
[V:3] f2e2f4 | 
[V:4] z8 | 
[V:1] e4c4 | 
[V:2] c8 | 
[V:3] e8 | 
[V:4] z4A,4 | 
[V:1] d4c2d2- | 
[V:2] z4f4 | 
[V:3] z8 | 
[V:4] _B,4A,2B,2- | 
[V:1] d2d2c4 | 
[V:2] g4a4 | 
[V:3] z4c4 | 
[V:4] B,2_B,2A,4 | 
[V:1] z2F2E2F2- | 
[V:2] a6a2 | 
[V:3] d4c2d2- | 
[V:4] z8 | 
[V:1] F2EDE4 | 
[V:2] a8 | 
[V:3] d2d2c4 | 
[V:4] z4A,4 | 
[V:1] c8 | 
[V:2] e8 | 
[V:3] z4c4 | 
[V:4] A,8 | 
[V:1] B8 | 
[V:2] g8 | 
[V:3] d8 | 
[V:4] G,6F,2 | 
[V:1] A4A4 | 
[V:2] f6ed | 
[V:3] d4d4 | 
[V:4] D,8 | 
[V:1] c6BA | 
[V:2] c2A2c4 | 
[V:3] e4f4 | 
[V:4] A,8 | 
[V:1] B4G4 | 
[V:2] d4e4 | 
[V:3] g6f2 | 
[V:4] G,4E,4 | 
[V:1] B4A4- | 
[V:2] B4z2d2- | 
[V:3] d6f2- | 
[V:4] G,4D,4- | 
[V:1] A4c4 | 
[V:2] d2c4A2 | 
[V:3] f4e4- | 
[V:4] D,2A,6 | 
[V:1] B6A2- | 
[V:2] B2G4A2- | 
[V:3] e2d6 | 
[V:4] G,6F,2- | 
[V:1] A4G2F2- | 
[V:2] A2F2G2A2- | 
[V:3] c6d2- | 
[V:4] F,4E,2D,2 | 
[V:1] F2EDE4 | 
[V:2] A2B2G2c2- | 
[V:3] d4c4 | 
[V:4] F,2G,2E,2A,2- | 
[V:1] z8 | 
[V:2] c2d2e4 | 
[V:3] z4c4- | 
[V:4] A,2F,2E,2A,2- | 
[V:1] z2A4B2 | 
[V:2] A4z4 | 
[V:3] c2d6 | 
[V:4] A,2D,2F,2G,2 | 
[V:1] G2c3BA2- | 
[V:2] z8 | 
[V:3] e6d2- | 
[V:4] E,2A,2C2D2 | 
[V:1] A2^G2A4- | 
[V:2] d4e2f2- | 
[V:3] d4c2d2- | 
[V:4] B,4A,2D,2 | 
[V:1] A2B2G2A2- | 
[V:2] f2ede2A2 | 
[V:3] d2B2c4 | 
[V:4] F,2G,2E,2A,2 | 
[V:1] AGF4ED | 
[V:2] B4A2B2 | 
[V:3] d8 | 
[V:4] z2D,2F,2G,2 | 
[V:1] E4z4 | 
[V:2] G2c2A2c2- | 
[V:3] c8 | 
[V:4] E,2A,4A,,2 | 
[V:1] z8 | 
[V:2] cBA4^G2 | 
[V:3] z8 | 
[V:4] C,2D,2B,,4 | 
[V:1] [M:3/1]E8F4 | 
[V:2] [M:3/1]A8A4 | 
[V:3] [M:3/1]c8d4 | 
[V:4] [M:3/1]A,,8D,4 | 
[V:1] D4G8 | 
[V:2] B4G4c4 | 
[V:3] d4e6f2 | 
[V:4] B,,4C,6D,2 | 
[V:1] G4B6c2 | 
[V:2] B8d4- | 
[V:3] g6f2d4 | 
[V:4] E,2F,2G,6F,2 | 
[V:1] d8c4 | 
[V:2] d4A8 | 
[V:3] f4e8 | 
[V:4] D,4A,8 | 
[V:1] d4A6B2 | 
[V:2] f4f4f4 | 
[V:3] d8z4 | 
[V:4] D,6E,2F,2G,2 | 
[V:1] c4A4B4 | 
[V:2] e6f2g4 | 
[V:3] c8d4 | 
[V:4] A,8G,4 | 
[V:1] c8G4 | 
[V:2] c6d2e4 | 
[V:3] A4c8 | 
[V:4] A,8E,4 | 
[V:1] A4B6A2 | 
[V:2] f4g4G4 | 
[V:3] c4d4e4 | 
[V:4] A,4G,4E,4 | 
[V:1] c4B6A2 | 
[V:2] A4B4c4 | 
[V:3] c4d6c2 | 
[V:4] A,4G,4F,4- | 
[V:1] A8G4 | 
[V:2] d4e8 | 
[V:3] A4B8 | 
[V:4] F,4E,8 | 
[V:1] A4D4A4 | 
[V:2] z12 | 
[V:3] A4B4c4 | 
[V:4] F,4G,4A,4 | 
[V:1] G4z4A4 | 
[V:2] e4g4f4 | 
[V:3] B4c4A4 | 
[V:4] E,8F,4 | 
[V:1] G4c6B2 | 
[V:2] d4e4c4 | 
[V:3] B4z4A4 | 
[V:4] G,4E,4F,4 | 
[V:1] B4A6G2 | 
[V:2] g4e4f4 | 
[V:3] B4c4d4 | 
[V:4] G,4A,4D,4 | 
[V:1] G8c4 | 
[V:2] e8a4 | 
[V:3] B4c4A4 | 
[V:4] E,8F,4 | 
[V:1] B4A6G2 | 
[V:2] g4e4f4 | 
[V:3] B4c4d4 | 
[V:4] G,4A,4D,4 | 
[V:1] G4E8 | 
[V:2] e8c4 | 
[V:3] B4c8 | 
[V:4] E,4C,6D,2 | 
[V:1] A8^G4 | 
[V:2] d4e8 | 
[V:3] A4B8 | 
[V:4] F,4E,8 | 
[V:1] A12 |]  
[V:2] e12 |]  
[V:3] A12 |]  
[V:4] A,,12 |]  



